docs/images/rating/star.svg

<svg width="34" height="33" viewBox="0 0 34 33" fill="none" xmlns="http://www.w3.org/2000/svg">
<path d="M15.8404 0.927052C16.1397 0.00574136 17.4431 0.0057404 17.7425 0.927051L21.0104 10.9846C21.1442 11.3966 21.5282 11.6755 21.9614 11.6755H32.5365C33.5052 11.6755 33.908 12.9152 33.1243 13.4846L24.5689 19.7004C24.2184 19.9551 24.0717 20.4064 24.2056 20.8185L27.4735 30.876C27.7728 31.7973 26.7183 32.5634 25.9346 31.994L17.3792 25.7781C17.0287 25.5235 16.5541 25.5235 16.2036 25.7781L7.64822 31.994C6.8645 32.5634 5.81002 31.7973 6.10937 30.876L9.37725 20.8185C9.51113 20.4064 9.36447 19.9551 9.01398 19.7004L0.45856 13.4846C-0.325154 12.9152 0.07762 11.6755 1.04634 11.6755H11.6214C12.0547 11.6755 12.4386 11.3966 12.5725 10.9846L15.8404 0.927052Z" fill="#FFB303"/>
</svg>

<svg xmlns="http://www.w3.org/2000/svg" width="34" height="33" fill="none"><path fill="#FFB303" d="M15.84.927c.3-.921 1.603-.921 1.902 0l3.268 10.058a1 1 0 0 0 .951.69h10.575c.97 0 1.372 1.24.588 1.81L24.57 19.7a1 1 0 0 0-.363 1.119l3.268 10.057c.299.921-.756 1.687-1.54 1.118l-8.555-6.216a1 1 0 0 0-1.175 0l-8.556 6.216c-.784.57-1.838-.197-1.539-1.118l3.268-10.058a1 1 0 0 0-.363-1.118L.459 13.485c-.784-.57-.381-1.81.587-1.81h10.575a1 1 0 0 0 .951-.69z"/></svg>
